apps/scalable/lplayer.svg

<svg xmlns="http://www.w3.org/2000/svg" style="isolation:isolate" width="256" height="256"><defs><filter id="a" width="270.648" height="254.338" x="-7.32" y="2.95" filterUnits="userSpaceOnUse"><feGaussianBlur xmlns="http://www.w3.org/2000/svg" in="SourceGraphic" stdDeviation="4.294"/><feOffset xmlns="http://www.w3.org/2000/svg" dy="4" result="pf_100_offsetBlur"/><feFlood xmlns="http://www.w3.org/2000/svg" flood-opacity=".4"/><feComposite xmlns="http://www.w3.org/2000/svg" in2="pf_100_offsetBlur" operator="in" result="pf_100_dropShadow"/><feBlend xmlns="http://www.w3.org/2000/svg" in="SourceGraphic" in2="pf_100_dropShadow"/></filter></defs><path fill="#BC1938" d="M165.685 11.947c74.055 0 84.639 10.557 84.639 84.544v59.251c0 73.986-10.584 84.543-84.639 84.543h-75.37c-74.055 0-84.639-10.557-84.639-84.543V96.491c0-73.987 10.584-84.544 84.639-84.544h75.37z" filter="url(#a)"/><g opacity=".4"><linearGradient id="b" x1=".517" x2=".517" y2="1"><stop offset="0%" stop-color="#fff"/><stop offset="12.5%" stop-opacity=".098" stop-color="#fff"/><stop offset="92.5%" stop-opacity=".098"/><stop offset="100%" stop-opacity=".498"/></linearGradient><path fill="none" stroke="url(#b)" stroke-linecap="round" stroke-linejoin="round" stroke-width="4.077" d="M165.685 11.947c74.055 0 84.639 10.557 84.639 84.544v59.251c0 73.986-10.584 84.543-84.639 84.543h-75.37c-74.055 0-84.639-10.557-84.639-84.543V96.491c0-73.987 10.584-84.544 84.639-84.544h75.37z" vector-effect="non-scaling-stroke"/></g><path fill="#FFF" d="M5.676 126.116v29.626c0 73.986 10.584 84.543 84.639 84.543h75.37c74.055 0 84.639-10.557 84.639-84.543v-29.626H5.676z" opacity=".1"/><path fill="#FFF" d="M128 11.947v228.338h37.685c74.055 0 84.639-10.557 84.639-84.543V96.491c0-73.987-10.584-84.544-84.639-84.544H128z" opacity=".2"/><linearGradient id="c" x1=".5" x2=".5" y1="-.036" y2="1.036" gradientTransform="translate(32.625 29.958) scale(193.417)" gradientUnits="userSpaceOnUse"><stop offset="0%"/><stop offset="100%" stop-color="#333"/></linearGradient><path fill="url(#c)" d="M129.333 29.958c-53.383 0-96.708 43.325-96.708 96.709 0 53.383 43.325 96.708 96.708 96.708 53.384 0 96.709-43.325 96.709-96.708 0-53.384-43.325-96.709-96.709-96.709zm0 93.997a2.71 2.71 0 0 1 2.712 2.712 2.71 2.71 0 0 1-2.712 2.711 2.71 2.71 0 0 1-2.711-2.711 2.71 2.71 0 0 1 2.711-2.712z"/><path fill="#333" d="M128.667 92.129c-19.425 0-35.204 15.779-35.204 35.204s15.779 35.204 35.204 35.204 35.204-15.779 35.204-35.204-15.779-35.204-35.204-35.204zm0 32.885a2.316 2.316 0 0 1 2.319 2.319 2.317 2.317 0 0 1-2.319 2.32 2.318 2.318 0 0 1-2.32-2.32 2.317 2.317 0 0 1 2.32-2.319z" opacity=".9"/><path fill="none" d="M128.667 31.556c52.879 0 95.777 42.898 95.777 95.777 0 52.88-42.898 95.778-95.777 95.778-52.88 0-95.778-42.898-95.778-95.778 0-52.879 42.898-95.777 95.778-95.777z" opacity=".9"/><path fill="none" d="M128.667 92.146c19.429 0 35.187 15.758 35.187 35.187s-15.758 35.189-35.187 35.189-35.189-15.76-35.189-35.189c0-19.429 15.76-35.187 35.189-35.187z" opacity=".9"/><g opacity=".9"><radialGradient id="d" cx=".5" cy=".5" r="53.688" fx=".5" fy=".5" gradientTransform="rotate(90 .666 99.94) scale(56.12)" gradientUnits="userSpaceOnUse"><stop offset="0%" stop-color="#f7f7f7"/><stop offset="100%" stop-color="#e1e1e1"/></radialGradient><path fill="url(#d)" d="M148.512 107.488c-10.953-10.953-28.737-10.953-39.69 0s-10.953 28.737 0 39.69 28.737 10.953 39.69 0 10.953-28.737 0-39.69zm-17.928 17.928a2.712 2.712 0 1 1-3.835 3.835 2.712 2.712 0 0 1 3.835-3.835z"/></g><path fill="#FFF" d="M151.642 104.358a32.3 32.3 0 0 0-12.695-7.843l-.647 1.94a30.296 30.296 0 0 1 11.887 7.358 30.276 30.276 0 0 1 8.155 14.763l1.998-.45a32.311 32.311 0 0 0-8.698-15.768zM98.668 122.239l-2.033-.346c-1.692 10.022 1.327 20.687 9.056 28.416 7.709 7.708 18.336 10.73 28.335 9.067l-.335-2.021c-9.37 1.56-19.321-1.279-26.544-8.502-7.242-7.241-10.065-17.223-8.479-26.614z" opacity=".743"/><path fill="#DA1636" d="M126.142 99.457c-14.34 1.315-25.322 13.386-25.333 27.848.005 14.466 10.988 26.544 25.333 27.859v-.338a2.11 2.11 0 0 1-.287-.041c-1.96-.303-3.517-.683-5.135-1.251-1.729-.609-4.436-1.853-4.436-2.039 0-.074 1.955-.13 4.344-.13 3.997 0 4.353-.022 4.452-.264.059-.146.107-1.521.107-3.057v-2.792l-.523-.105c-.288-.057-4.076-.142-8.417-.186-4.341-.041-7.954-.121-8.03-.168-.177-.111-1.484-1.961-1.598-2.262-.077-.202.388-.221 3.929-.166 7.968.125 14.392.148 14.488.049.054-.057.131-2.184.17-4.733l.072-4.633-.494-.205a6.052 6.052 0 0 0-1.168-.308c-.37-.058-.976-.199-1.346-.317a36.293 36.293 0 0 0-1.871-.507c-2.289-.56-4.715-1.209-4.863-1.302-.263-.165-.159-.533.188-.666.185-.073.606-.169.935-.217.948-.139 1.891-.365 2.609-.624.366-.132 1.544-.437 2.619-.681 3.234-.73 3.28-.75 3.403-1.449.058-.33.108-2.45.113-4.712.009-3.788-.012-4.119-.253-4.196-.444-.141-20.066-.643-21.463-.549-.092.004.427-1.362.914-2.414l.176-.378 2.905.049 2.904.049.076-.354c.042-.195.104-1.977.138-3.962.057-3.442.075-3.623.38-3.932.271-.274.463-.316 1.253-.278.513.023 1 .112 1.081.192.091.091.129 1.63.1 4.053-.041 3.492-.019 3.933.205 4.16.214.217.541.248 2.218.212l1.968-.041.094-1.059c.051-.583.102-2.44.112-4.128.016-2.632.052-3.082.252-3.159.129-.05.718-.031 1.31.041l1.075.134.075 4.16.074 4.161 2.282.041 2.282.041.006-1.781c.019-5.078.279-13.251.426-13.4.017-.019.074-.03.149-.049v-.226.01zm-23.783 23.72a.42.42 0 0 1 .079.001c.158.019 2.816.073 5.907.125 6.461.115 9.691.273 9.9.485.096.096.079.202-.047.304-.238.194-4.572 1.294-6.702 1.702-.864.166-2.345.474-3.291.684-.947.211-2.692.587-3.879.836-1.187.248-2.214.451-2.282.451-.148 0-.146-2.965.003-3.934.074-.479.141-.637.312-.655v.001zm.085 8.543a.302.302 0 0 1 .128.023c.339.131 3.228.827 7.353 1.771 5.614 1.285 7.774 1.881 7.828 2.162.031.157-.078.272-.299.318-.69.143-3.294.171-8.65.094l-5.461-.082-.409-1.438c-.225-.79-.455-1.772-.51-2.181-.066-.489-.072-.656.021-.673l-.001.006zm21.986 3.157c.128 0 .234.066.234.152 0 .084-.063.152-.141.152-.077 0-.183-.066-.233-.152-.051-.084.012-.152.14-.152z"/><path fill="#666" d="M130.789 101.74h2.489a1.322 1.322 0 0 1 0 2.644h-2.489a1.323 1.323 0 0 1 0-2.644zM130.789 104.851h10.656a1.168 1.168 0 0 1 0 2.334h-10.656a1.168 1.168 0 0 1 0-2.334zM130.361 107.885h12.445c.58 0 1.051.47 1.051 1.05 0 .579-.471 1.05-1.051 1.05h-12.445a1.05 1.05 0 1 1 0-2.1zM130.672 111.541h4.667a.895.895 0 0 1 0 1.789h-4.667a.894.894 0 1 1 0-1.789zM140.672 111.541h4.667a.895.895 0 0 1 0 1.789h-4.667a.894.894 0 1 1 0-1.789zM131.255 114.574h13.224a1.323 1.323 0 0 1 0 2.645h-13.224a1.324 1.324 0 0 1 0-2.645zM131.255 117.997h7.157a1.011 1.011 0 0 1 0 2.022h-7.157a1.011 1.011 0 0 1 0-2.022zM142.557 118.197h4.589a.895.895 0 0 1 0 1.789h-4.589a.894.894 0 1 1 0-1.789zM131.294 120.953h6.923a1.128 1.128 0 0 1 0 2.255h-6.923a1.128 1.128 0 0 1 0-2.255zM142.612 121.575h9.101a1.09 1.09 0 0 1 0 2.178h-9.101a1.09 1.09 0 0 1 0-2.178zM146.121 125.806h6.611a.973.973 0 0 1 0 1.944h-6.611a.973.973 0 0 1 0-1.944zM130.361 130.287h24.191a1.05 1.05 0 0 1 0 2.1h-24.191a1.05 1.05 0 1 1 0-2.1zM130.672 133.787h8.479a.973.973 0 0 1 0 1.945h-8.479a.972.972 0 1 1 0-1.945zM143.025 133.832h6.222a.973.973 0 0 1 0 1.945h-6.222a.973.973 0 0 1 0-1.945zM131.683 137.132h16.102a.973.973 0 0 1 0 1.945h-16.102a.973.973 0 0 1 0-1.945zM130.75 139.854h7.467a1.284 1.284 0 0 1 0 2.567h-7.467a1.284 1.284 0 0 1 0-2.567zM142.75 139.854h5.467a1.284 1.284 0 0 1 0 2.567h-5.467a1.284 1.284 0 0 1 0-2.567zM130.594 143.121h16.024a1.05 1.05 0 0 1 0 2.1h-16.024a1.051 1.051 0 0 1 0-2.1zM132.772 146.155h5.29a1.128 1.128 0 0 1 0 2.256h-5.29a1.129 1.129 0 0 1 0-2.256zM130.011 149.577h5.445a1.168 1.168 0 0 1 0 2.334h-5.445a1.168 1.168 0 0 1 0-2.334z"/></svg>

<svg xmlns="http://www.w3.org/2000/svg" style="isolation:isolate" width="256" height="256" viewBox="0 0 256 256">
 <defs>
  <filter id="nmzwgMq4BIvB8JISUJskggExfnMBWUQf" width="270.648" height="254.338" x="-7.32" y="2.95" filterUnits="userSpaceOnUse">
   <feGaussianBlur xmlns="http://www.w3.org/2000/svg" in="SourceGraphic" stdDeviation="4.294"/>
   <feOffset xmlns="http://www.w3.org/2000/svg" dx="0" dy="4" result="pf_100_offsetBlur"/>
   <feFlood xmlns="http://www.w3.org/2000/svg" flood-opacity=".4"/>
   <feComposite xmlns="http://www.w3.org/2000/svg" in2="pf_100_offsetBlur" operator="in" result="pf_100_dropShadow"/>
   <feBlend xmlns="http://www.w3.org/2000/svg" in="SourceGraphic" in2="pf_100_dropShadow" mode="normal"/>
  </filter>
 </defs>
 <g filter="url(#nmzwgMq4BIvB8JISUJskggExfnMBWUQf)">
  <path fill="#BC1938" d="M 165.685 11.947 C 239.74 11.947 250.324 22.504 250.324 96.491 L 250.324 155.742 C 250.324 229.728 239.74 240.285 165.685 240.285 L 90.315 240.285 C 16.26 240.285 5.676 229.728 5.676 155.742 L 5.676 96.491 C 5.676 22.504 16.26 11.947 90.315 11.947 L 165.685 11.947 Z"/>
 </g>
 <g opacity=".4">
  <linearGradient id="_lgradient_27" x1=".517" x2=".517" y1="0" y2="1">
   <stop offset="0%" style="stop-color:rgb(255,255,255)"/>
   <stop offset="12.5%" stop-opacity=".098" style="stop-color:rgb(255,255,255)"/>
   <stop offset="92.5%" stop-opacity=".098" style="stop-color:rgb(0,0,0)"/>
   <stop offset="100%" stop-opacity=".498" style="stop-color:rgb(0,0,0)"/>
  </linearGradient>
  <path fill="none" stroke="url(#_lgradient_27)" stroke-linecap="round" stroke-linejoin="round" stroke-width="4.077" d="M 165.685 11.947 C 239.74 11.947 250.324 22.504 250.324 96.491 L 250.324 155.742 C 250.324 229.728 239.74 240.285 165.685 240.285 L 90.315 240.285 C 16.26 240.285 5.676 229.728 5.676 155.742 L 5.676 96.491 C 5.676 22.504 16.26 11.947 90.315 11.947 L 165.685 11.947 Z" vector-effect="non-scaling-stroke"/>
 </g>
 <g opacity=".1">
  <path fill="#FFFFFF" d="M 5.676 126.116 L 5.676 155.742 C 5.676 229.728 16.26 240.285 90.315 240.285 L 165.685 240.285 C 239.74 240.285 250.324 229.728 250.324 155.742 L 250.324 126.116 L 5.676 126.116 Z"/>
 </g>
 <g opacity=".2">
  <path fill="#FFFFFF" d="M 128 11.947 L 128 240.285 L 165.685 240.285 C 239.74 240.285 250.324 229.728 250.324 155.742 L 250.324 96.491 C 250.324 22.504 239.74 11.947 165.685 11.947 L 128 11.947 Z"/>
 </g>
 <g>
  <linearGradient id="_lgradient_28" x1=".5" x2=".5" y1="-.036" y2="1.036" gradientTransform="matrix(193.417,0,0,193.417,32.625,29.958)" gradientUnits="userSpaceOnUse">
   <stop offset="0%" style="stop-color:rgb(0,0,0)"/>
   <stop offset="100%" style="stop-color:rgb(51,51,51)"/>
  </linearGradient>
  <path fill="url(#_lgradient_28)" d="M 129.333 29.958 C 75.95 29.958 32.625 73.283 32.625 126.667 C 32.625 180.05 75.95 223.375 129.333 223.375 C 182.717 223.375 226.042 180.05 226.042 126.667 C 226.042 73.283 182.717 29.958 129.333 29.958 L 129.333 29.958 Z M 129.333 123.955 C 130.832 123.955 132.045 125.168 132.045 126.667 C 132.045 128.165 130.832 129.378 129.333 129.378 C 127.835 129.378 126.622 128.165 126.622 126.667 C 126.622 125.168 127.835 123.955 129.333 123.955 Z"/>
  <g opacity=".9">
   <path fill="#333333" d="M 128.667 92.129 C 109.242 92.129 93.463 107.908 93.463 127.333 C 93.463 146.758 109.242 162.537 128.667 162.537 C 148.092 162.537 163.871 146.758 163.871 127.333 C 163.871 107.908 148.092 92.129 128.667 92.129 Z M 128.667 125.014 C 129.95 125.014 130.986 126.05 130.986 127.333 C 130.986 128.616 129.95 129.653 128.667 129.653 C 127.384 129.653 126.347 128.616 126.347 127.333 C 126.347 126.05 127.384 125.014 128.667 125.014 Z"/>
  </g>
  <g opacity=".9">
   <path fill="none" d="M 128.667 31.556 C 181.546 31.556 224.444 74.454 224.444 127.333 C 224.444 180.213 181.546 223.111 128.667 223.111 C 75.787 223.111 32.889 180.213 32.889 127.333 C 32.889 74.454 75.787 31.556 128.667 31.556 Z"/>
  </g>
  <g opacity=".9">
   <path fill="none" d="M 128.667 92.146 C 148.096 92.146 163.854 107.904 163.854 127.333 C 163.854 146.762 148.096 162.522 128.667 162.522 C 109.238 162.522 93.478 146.762 93.478 127.333 C 93.478 107.904 109.238 92.146 128.667 92.146 Z"/>
  </g>
  <g opacity=".9">
   <radialGradient id="_rgradient_0" cx=".5" cy=".5" r="53.688" fx=".5" fy=".5" gradientTransform="matrix(0,56.12,-56.12,0,100.607,99.274)" gradientUnits="userSpaceOnUse">
    <stop offset="0%" style="stop-color:rgb(247,247,247)"/>
    <stop offset="100%" style="stop-color:rgb(225,225,225)"/>
   </radialGradient>
   <path fill="url(#_rgradient_0)" d="M 148.512 107.488 C 137.559 96.535 119.775 96.535 108.822 107.488 C 97.869 118.441 97.869 136.225 108.822 147.178 C 119.775 158.131 137.559 158.131 148.512 147.178 C 159.465 136.225 159.465 118.441 148.512 107.488 Z M 130.584 125.416 C 131.644 126.475 131.644 128.191 130.584 129.251 C 129.525 130.31 127.809 130.31 126.749 129.251 C 125.69 128.191 125.69 126.475 126.749 125.416 C 127.809 124.356 129.525 124.356 130.584 125.416 Z"/>
  </g>
  <g opacity=".743">
   <path fill="#FFFFFF" d="M 151.642 104.358 C 147.951 100.666 143.589 98.057 138.947 96.515 L 138.3 98.455 C 142.647 99.9 146.73 102.356 150.187 105.813 C 154.398 110.025 157.116 115.162 158.342 120.576 L 160.34 120.126 C 159.032 114.346 156.139 108.855 151.642 104.358 L 151.642 104.358 Z"/>
  </g>
  <g opacity=".743">
   <path fill="#FFFFFF" d="M 98.668 122.239 L 96.635 121.893 C 94.943 131.915 97.962 142.58 105.691 150.309 C 113.4 158.017 124.027 161.039 134.026 159.376 L 133.691 157.355 C 124.321 158.915 114.37 156.076 107.147 148.853 C 99.905 141.612 97.082 131.63 98.668 122.239 L 98.668 122.239 Z"/>
  </g>
  <path fill="#DA1636" d="M 126.142 99.457 C 111.802 100.772 100.82 112.843 100.809 127.305 C 100.814 141.771 111.797 153.849 126.142 155.164 L 126.142 154.826 C 126.043 154.819 125.944 154.804 125.855 154.785 C 123.895 154.482 122.338 154.102 120.72 153.534 C 118.991 152.925 116.284 151.681 116.284 151.495 C 116.284 151.421 118.239 151.365 120.628 151.365 C 124.625 151.365 124.981 151.343 125.08 151.101 C 125.139 150.955 125.187 149.58 125.187 148.044 L 125.187 145.252 L 124.664 145.147 C 124.376 145.09 120.588 145.005 116.247 144.961 C 111.906 144.92 108.293 144.84 108.217 144.793 C 108.04 144.682 106.733 142.832 106.619 142.531 C 106.542 142.329 107.007 142.31 110.548 142.365 C 118.516 142.49 124.94 142.513 125.036 142.414 C 125.09 142.357 125.167 140.23 125.206 137.681 L 125.278 133.048 L 124.784 132.843 C 124.512 132.73 123.987 132.591 123.616 132.535 C 123.246 132.477 122.64 132.336 122.27 132.218 C 121.9 132.1 121.058 131.872 120.399 131.711 C 118.11 131.151 115.684 130.502 115.536 130.409 C 115.273 130.244 115.377 129.876 115.724 129.743 C 115.909 129.67 116.33 129.574 116.659 129.526 C 117.607 129.387 118.55 129.161 119.268 128.902 C 119.634 128.77 120.812 128.465 121.887 128.221 C 125.121 127.491 125.167 127.471 125.29 126.772 C 125.348 126.442 125.398 124.322 125.403 122.06 C 125.412 118.272 125.391 117.941 125.15 117.864 C 124.706 117.723 105.084 117.221 103.687 117.315 C 103.595 117.319 104.114 115.953 104.601 114.901 L 104.777 114.523 L 107.682 114.572 L 110.586 114.621 L 110.662 114.267 C 110.704 114.072 110.766 112.29 110.8 110.305 C 110.857 106.863 110.875 106.682 111.18 106.373 C 111.451 106.099 111.643 106.057 112.433 106.095 C 112.946 106.118 113.433 106.207 113.514 106.287 C 113.605 106.378 113.643 107.917 113.614 110.34 C 113.573 113.832 113.595 114.273 113.819 114.5 C 114.033 114.717 114.36 114.748 116.037 114.712 L 118.005 114.671 L 118.099 113.612 C 118.15 113.029 118.201 111.172 118.211 109.484 C 118.227 106.852 118.263 106.402 118.463 106.325 C 118.592 106.275 119.181 106.294 119.773 106.366 L 120.848 106.5 L 120.923 110.66 L 120.997 114.821 L 123.279 114.862 L 125.561 114.903 L 125.567 113.122 C 125.586 108.044 125.846 99.871 125.993 99.722 C 126.01 99.703 126.067 99.692 126.142 99.673 L 126.142 99.447 L 126.142 99.457 Z M 102.359 123.177 C 102.383 123.175 102.41 123.175 102.438 123.178 C 102.596 123.197 105.254 123.251 108.345 123.303 C 114.806 123.418 118.036 123.576 118.245 123.788 C 118.341 123.884 118.324 123.99 118.198 124.092 C 117.96 124.286 113.626 125.386 111.496 125.794 C 110.632 125.96 109.151 126.268 108.205 126.478 C 107.258 126.689 105.513 127.065 104.326 127.314 C 103.139 127.562 102.112 127.765 102.044 127.765 C 101.896 127.765 101.898 124.8 102.047 123.831 C 102.121 123.352 102.188 123.194 102.359 123.176 L 102.359 123.177 Z M 102.444 131.72 C 102.475 131.716 102.517 131.724 102.572 131.743 C 102.911 131.874 105.8 132.57 109.925 133.514 C 115.539 134.799 117.699 135.395 117.753 135.676 C 117.784 135.833 117.675 135.948 117.454 135.994 C 116.764 136.137 114.16 136.165 108.804 136.088 L 103.343 136.006 L 102.934 134.568 C 102.709 133.778 102.479 132.796 102.424 132.387 C 102.358 131.898 102.352 131.731 102.445 131.714 L 102.444 131.72 Z M 124.43 134.877 C 124.558 134.877 124.664 134.943 124.664 135.029 C 124.664 135.113 124.601 135.181 124.523 135.181 C 124.446 135.181 124.34 135.115 124.29 135.029 C 124.239 134.945 124.302 134.877 124.43 134.877 L 124.43 134.877 Z"/>
  <path fill="#666666" d="M 130.789 101.74 L 133.278 101.74 C 134.008 101.74 134.6 102.332 134.6 103.062 L 134.6 103.062 C 134.6 103.792 134.008 104.384 133.278 104.384 L 130.789 104.384 C 130.059 104.384 129.466 103.792 129.466 103.062 L 129.466 103.062 C 129.466 102.332 130.059 101.74 130.789 101.74 Z"/>
  <path fill="#666666" d="M 130.789 104.851 L 141.445 104.851 C 142.089 104.851 142.612 105.374 142.612 106.018 L 142.612 106.018 C 142.612 106.662 142.089 107.185 141.445 107.185 L 130.789 107.185 C 130.145 107.185 129.622 106.662 129.622 106.018 L 129.622 106.018 C 129.622 105.374 130.145 104.851 130.789 104.851 Z"/>
  <path fill="#666666" d="M 130.361 107.885 L 142.806 107.885 C 143.386 107.885 143.857 108.355 143.857 108.935 L 143.857 108.935 C 143.857 109.514 143.386 109.985 142.806 109.985 L 130.361 109.985 C 129.781 109.985 129.311 109.514 129.311 108.935 L 129.311 108.935 C 129.311 108.355 129.781 107.885 130.361 107.885 Z"/>
  <path fill="#666666" d="M 130.672 111.541 L 135.339 111.541 C 135.833 111.541 136.234 111.941 136.234 112.435 L 136.234 112.435 C 136.234 112.929 135.833 113.33 135.339 113.33 L 130.672 113.33 C 130.178 113.33 129.778 112.929 129.778 112.435 L 129.778 112.435 C 129.778 111.941 130.178 111.541 130.672 111.541 Z"/>
  <path fill="#666666" d="M 140.672 111.541 L 145.339 111.541 C 145.833 111.541 146.234 111.941 146.234 112.435 L 146.234 112.435 C 146.234 112.929 145.833 113.33 145.339 113.33 L 140.672 113.33 C 140.178 113.33 139.778 112.929 139.778 112.435 L 139.778 112.435 C 139.778 111.941 140.178 111.541 140.672 111.541 Z"/>
  <path fill="#666666" d="M 131.255 114.574 L 144.479 114.574 C 145.209 114.574 145.801 115.167 145.801 115.897 L 145.801 115.897 C 145.801 116.626 145.209 117.219 144.479 117.219 L 131.255 117.219 C 130.526 117.219 129.933 116.626 129.933 115.897 L 129.933 115.897 C 129.933 115.167 130.526 114.574 131.255 114.574 Z"/>
  <path fill="#666666" d="M 131.255 117.997 L 138.412 117.997 C 138.97 117.997 139.423 118.45 139.423 119.008 L 139.423 119.008 C 139.423 119.566 138.97 120.019 138.412 120.019 L 131.255 120.019 C 130.697 120.019 130.244 119.566 130.244 119.008 L 130.244 119.008 C 130.244 118.45 130.697 117.997 131.255 117.997 Z"/>
  <path fill="#666666" d="M 142.557 118.197 L 147.146 118.197 C 147.64 118.197 148.041 118.598 148.041 119.091 L 148.041 119.091 C 148.041 119.585 147.64 119.986 147.146 119.986 L 142.557 119.986 C 142.063 119.986 141.663 119.585 141.663 119.091 L 141.663 119.091 C 141.663 118.598 142.063 118.197 142.557 118.197 Z"/>
  <path fill="#666666" d="M 131.294 120.953 L 138.217 120.953 C 138.84 120.953 139.345 121.458 139.345 122.08 L 139.345 122.08 C 139.345 122.703 138.84 123.208 138.217 123.208 L 131.294 123.208 C 130.672 123.208 130.166 122.703 130.166 122.08 L 130.166 122.08 C 130.166 121.458 130.672 120.953 131.294 120.953 Z"/>
  <path fill="#666666" d="M 142.612 121.575 L 151.713 121.575 C 152.314 121.575 152.802 122.063 152.802 122.664 L 152.802 122.664 C 152.802 123.265 152.314 123.753 151.713 123.753 L 142.612 123.753 C 142.011 123.753 141.523 123.265 141.523 122.664 L 141.523 122.664 C 141.523 122.063 142.011 121.575 142.612 121.575 Z"/>
  <path fill="#666666" d="M 146.121 125.806 L 152.732 125.806 C 153.269 125.806 153.705 126.241 153.705 126.778 L 153.705 126.778 C 153.705 127.315 153.269 127.75 152.732 127.75 L 146.121 127.75 C 145.584 127.75 145.148 127.315 145.148 126.778 L 145.148 126.778 C 145.148 126.241 145.584 125.806 146.121 125.806 Z"/>
  <path fill="#666666" d="M 130.361 130.287 L 154.552 130.287 C 155.132 130.287 155.602 130.757 155.602 131.337 L 155.602 131.337 C 155.602 131.916 155.132 132.387 154.552 132.387 L 130.361 132.387 C 129.781 132.387 129.311 131.916 129.311 131.337 L 129.311 131.337 C 129.311 130.757 129.781 130.287 130.361 130.287 Z"/>
  <path fill="#666666" d="M 130.672 133.787 L 139.151 133.787 C 139.687 133.787 140.123 134.223 140.123 134.759 L 140.123 134.759 C 140.123 135.296 139.687 135.732 139.151 135.732 L 130.672 135.732 C 130.135 135.732 129.7 135.296 129.7 134.759 L 129.7 134.759 C 129.7 134.223 130.135 133.787 130.672 133.787 Z"/>
  <path fill="#666666" d="M 143.025 133.832 L 149.247 133.832 C 149.784 133.832 150.22 134.268 150.22 134.805 L 150.22 134.805 C 150.22 135.341 149.784 135.777 149.247 135.777 L 143.025 135.777 C 142.488 135.777 142.052 135.341 142.052 134.805 L 142.052 134.805 C 142.052 134.268 142.488 133.832 143.025 133.832 Z"/>
  <path fill="#666666" d="M 131.683 137.132 L 147.785 137.132 C 148.321 137.132 148.757 137.568 148.757 138.104 L 148.757 138.104 C 148.757 138.641 148.321 139.077 147.785 139.077 L 131.683 139.077 C 131.147 139.077 130.711 138.641 130.711 138.104 L 130.711 138.104 C 130.711 137.568 131.147 137.132 131.683 137.132 Z"/>
  <path fill="#666666" d="M 130.75 139.854 L 138.217 139.854 C 138.926 139.854 139.501 140.429 139.501 141.138 L 139.501 141.138 C 139.501 141.846 138.926 142.421 138.217 142.421 L 130.75 142.421 C 130.041 142.421 129.466 141.846 129.466 141.138 L 129.466 141.138 C 129.466 140.429 130.041 139.854 130.75 139.854 Z"/>
  <path fill="#666666" d="M 142.75 139.854 L 148.217 139.854 C 148.926 139.854 149.501 140.429 149.501 141.138 L 149.501 141.138 C 149.501 141.846 148.926 142.421 148.217 142.421 L 142.75 142.421 C 142.041 142.421 141.466 141.846 141.466 141.138 L 141.466 141.138 C 141.466 140.429 142.041 139.854 142.75 139.854 Z"/>
  <path fill="#666666" d="M 130.594 143.121 L 146.618 143.121 C 147.197 143.121 147.668 143.592 147.668 144.171 L 147.668 144.171 C 147.668 144.751 147.197 145.221 146.618 145.221 L 130.594 145.221 C 130.015 145.221 129.544 144.751 129.544 144.171 L 129.544 144.171 C 129.544 143.592 130.015 143.121 130.594 143.121 Z"/>
  <path fill="#666666" d="M 132.772 146.155 L 138.062 146.155 C 138.684 146.155 139.189 146.66 139.189 147.283 L 139.189 147.283 C 139.189 147.905 138.684 148.411 138.062 148.411 L 132.772 148.411 C 132.15 148.411 131.644 147.905 131.644 147.283 L 131.644 147.283 C 131.644 146.66 132.15 146.155 132.772 146.155 Z"/>
  <path fill="#666666" d="M 130.011 149.577 L 135.456 149.577 C 136.1 149.577 136.623 150.1 136.623 150.744 L 136.623 150.744 C 136.623 151.388 136.1 151.911 135.456 151.911 L 130.011 151.911 C 129.367 151.911 128.844 151.388 128.844 150.744 L 128.844 150.744 C 128.844 150.1 129.367 149.577 130.011 149.577 Z"/>
 </g>
</svg>
